X: 1
M: 2/4
K: Dm
Q: 1/4=90
L: 1/8
A2|d2>d2| d2 ^ce | d2 Ac | c2>B2 | d2 c>B | A4 |
w: Es-ta ma-nhã fui à ca-ça lin-do ca-ná-rio ca-cei
z2 D2| A2>B2 | A2 GF | E2>F2 | G2 F2| E2 AG | F2 E2 | D4 |]
w: pa-ra tra-zer de pre-sen-te à fi-lha do* no-sso rei
</abc>
<abc>
